X:137
T:Gyrru'r Ychen - Driving the oxen
M:4/4
L:1/8
Q:100
C:Trad.
R:Slow air
K:G
d2 cB AG AB | cB AG F D2 D | EF GA B d2
B | dd cA F D3 | G3- G/ G/ E D3 | G3- G/ G/
E D3 | G8 ||
